X: 5
T: No_103_Stomp_Dance_Song_(e).krn
N: Derived from No_103_Stomp_Dance_Song_(e).krn
%%abc-version 2.0
%%abcx-abcm2ps-target-version 5.9.1 (29 Sep 2008)
%%abc-creator hum2abc beta
%%abcx-conversion-date 2019/03/15 08:38:45
%%humdrum-veritas 67776346
%%humdrum-veritas-data 3753568601
%%linebreak <none>
%%barnumbers 0
L: 1/8
M: 2/4
K: F clef=bass
[K:clef=bass][M:2/4]C/C3/ A,F, [I:setbarnb 2]||  
[M:3/4]G,3/G,/ G,G, (F,E,) ||  
[M:2/4]G,3/G,/ G,G,/G,/ | 
G,3/G,/ G,G, | 
A,3/A,/ A,F, ||  
[M:3/4]G,3/G,/ G,F, C,C, ||  
[M:3/8]F,F,F, ||  
[M:2/4]F,3/F,/ F,F, :|]  



